actions/24/labplot-xy-curve.svg

<?xml version="1.0" encoding="UTF-8" standalone="no"?>
<svg
   width="24"
   height="24"
   viewBox="0 0 24 24"
   version="1.1"
   id="svg7"
   sodipodi:docname="labplot-xy-curve.svg"
   inkscape:version="1.1.2 (0a00cf5339, 2022-02-04)"
   xmlns:inkscape="http://www.inkscape.org/namespaces/inkscape"
   xmlns:sodipodi="http://sodipodi.sourceforge.net/DTD/sodipodi-0.dtd"
   xmlns="http://www.w3.org/2000/svg"
   xmlns:svg="http://www.w3.org/2000/svg">
  <sodipodi:namedview
     id="namedview9"
     pagecolor="#000000"
     bordercolor="#666666"
     borderopacity="1.0"
     inkscape:pageshadow="2"
     inkscape:pageopacity="0"
     inkscape:pagecheckerboard="0"
     showgrid="false"
     inkscape:zoom="28.416667"
     inkscape:cx="11.982405"
     inkscape:cy="11.964809"
     inkscape:window-width="1482"
     inkscape:window-height="967"
     inkscape:window-x="0"
     inkscape:window-y="29"
     inkscape:window-maximized="1"
     inkscape:current-layer="svg7" />
  <defs
     id="defs3">
    <style
       id="current-color-scheme"
       type="text/css">
   .ColorScheme-Text { color:#eeeeec; } .ColorScheme-Highlight { color:#367bf0; } .ColorScheme-NeutralText { color:#ffcc44; } .ColorScheme-PositiveText { color:#3db47e; } .ColorScheme-NegativeText { color:#dd4747; }
  </style>
  </defs>
  <path
     style="fill:currentColor"
     class="ColorScheme-Text"
     d="m 13.779297,2.9746094 -0.03125,0.056641 c -0.0743,-0.0124 -0.149053,-0.025391 -0.226563,-0.025391 -0.8178,0 -1.525437,0.7232575 -1.523437,1.5234375 -9e-4,0.35866 0.146633,0.6880456 0.376953,0.9472656 L 9.2539062,11.03125 c -0.0761,-0.0131 -0.1529318,-0.02539 -0.2324218,-0.02539 -0.0133,0 -0.025863,0.0039 -0.039063,0.0039 L 7.4394531,6.6757812 c 0.3393,-0.2733299 0.5596938,-0.6875343 0.5585938,-1.1464843 0.002,-0.80022 -0.6587325,-1.5234375 -1.4765625,-1.5234375 -0.8178,0 -1.5254375,0.7232575 -1.5234375,1.5234375 -1.5e-4,0.058 0.010478,0.1134318 0.017578,0.1699219 L 2.5351562,6.9394531 c -0.26449,-0.26356 -0.6194918,-0.4335937 -1.0136718,-0.4335937 -0.81780003,0 -1.52543752,0.7232575 -1.52343753,1.5234375 -0.00199999,0.80023 0.7056775,1.4765625 1.52343753,1.4765625 0.81779,0 1.4784625,-0.6762925 1.4765625,-1.4765625 C 2.9982269,7.9557969 2.9871625,7.88422 2.9765625,7.8125 L 5.4589844,6.5722656 c 0.27487,0.26288 0.646455,0.4273306 1.046875,0.4316406 l 1.5625,4.3671878 c -0.34226,0.2863 -0.5713925,0.707363 -0.5703125,1.158203 -0.002,0.80023 0.7056775,1.476562 1.5234375,1.476562 0.81779,0 1.4784626,-0.676292 1.4765626,-1.476562 9.2e-4,-0.36959 -0.145043,-0.719198 -0.376953,-0.992188 l 2.733267,-4.8560747 v 0 l 0.477476,0.1693563 0.474804,3.3566404 c -0.4729,0.26781 -0.809914,0.773416 -0.808594,1.322266 -0.002,0.80023 0.705677,1.476562 1.523437,1.476562 0.81779,0 1.478463,-0.676292 1.476563,-1.476562 0.002,-0.70802 -0.515612,-1.352388 -1.201172,-1.492188 L 14.197266,5.8339844 c 0.47546,-0.24905 0.802131,-0.7438275 0.800781,-1.3046875 0.002,-0.71067 -0.519605,-1.3576407 -1.208985,-1.4941407 z"
     transform="translate(4,4)"
     id="path5"
     sodipodi:nodetypes="ccscccscccscccscsccccccscccccccscccccc" />
</svg>

<svg xmlns="http://www.w3.org/2000/svg" width="24" height="24" viewBox="0 0 24 24">
 <defs>
  <style id="current-color-scheme" type="text/css">
   .ColorScheme-Text { color:#eeeeec; } .ColorScheme-Highlight { color:#367bf0; } .ColorScheme-NeutralText { color:#ffcc44; } .ColorScheme-PositiveText { color:#3db47e; } .ColorScheme-NegativeText { color:#dd4747; }
  </style>
 </defs>
 <path style="fill:currentColor" class="ColorScheme-Text" d="M 13.779297 2.9746094 L 13.748047 3.03125 C 13.673747 3.01885 13.598994 3.0058594 13.521484 3.0058594 C 12.703684 3.0058594 11.996047 3.7291169 11.998047 4.5292969 C 11.997147 4.8879569 12.14468 5.2173425 12.375 5.4765625 L 9.2539062 11.03125 C 9.1778063 11.01815 9.1009744 11.005859 9.0214844 11.005859 C 9.0081844 11.005859 8.9956219 11.009766 8.9824219 11.009766 L 7.4394531 6.6757812 C 7.7787531 6.4024513 7.9991469 5.9882469 7.9980469 5.5292969 C 8.0000469 4.7290769 7.3393144 4.0058594 6.5214844 4.0058594 C 5.7036844 4.0058594 4.9960469 4.7291169 4.9980469 5.5292969 C 4.9978969 5.5872969 5.008525 5.6427287 5.015625 5.6992188 L 2.5351562 6.9394531 C 2.2706662 6.6758931 1.9156644 6.5058594 1.5214844 6.5058594 C 0.70368437 6.5058594 -0.003953125 7.2291169 -0.001953125 8.0292969 C -0.003953125 8.8295269 0.70372437 9.5058594 1.5214844 9.5058594 C 2.3392744 9.5058594 2.9999469 8.8295669 2.9980469 8.0292969 C 2.9982269 7.9557969 2.9871625 7.88422 2.9765625 7.8125 L 5.4589844 6.5722656 C 5.7338544 6.8351456 6.1054394 6.9995962 6.5058594 7.0039062 L 8.0683594 11.371094 C 7.7260994 11.657394 7.4969669 12.078457 7.4980469 12.529297 C 7.4960469 13.329527 8.2037244 14.005859 9.0214844 14.005859 C 9.8392744 14.005859 10.499947 13.329567 10.498047 12.529297 C 10.498967 12.159707 10.353004 11.810099 10.121094 11.537109 L 13.216797 6.0371094 L 13.806641 10.207031 C 13.333741 10.474841 12.996727 10.980447 12.998047 11.529297 C 12.996047 12.329527 13.703724 13.005859 14.521484 13.005859 C 15.339274 13.005859 15.999947 12.329567 15.998047 11.529297 C 16.000047 10.821277 15.482435 10.176909 14.796875 10.037109 L 14.197266 5.8339844 C 14.672726 5.5849344 14.999397 5.0901569 14.998047 4.5292969 C 15.000047 3.8186269 14.478442 3.1716562 13.789062 3.0351562 L 13.779297 2.9746094 z" transform="translate(4 4)"/>
</svg>
